assets/sonr-icons/truck.svg

<svg xmlns="http://www.w3.org/2000/svg" width="24" height="24" fill="none" viewBox="0 0 24 24"><path stroke="#000" stroke-linejoin="round" stroke-width="2" d="M10 16H14M9 7V14M9 7H6.07037C5.40166 7 4.7772 7.3342 4.40627 7.8906L3.3359 9.49615C3.11688 9.82469 3 10.2107 3 10.6056V14.2857C3 15.2325 3.76751 16 4.71429 16M9 7V9M9 7C9 5.89543 9.89543 5 11 5H19C20.1046 5 21 5.89543 21 7V14C21 15.1046 20.1046 16 19 16M10 16.5C10 17.8807 8.88071 19 7.5 19C6.11929 19 5 17.8807 5 16.5C5 15.1193 6.11929 14 7.5 14C8.88071 14 10 15.1193 10 16.5ZM19 16.5C19 17.8807 17.8807 19 16.5 19C15.1193 19 14 17.8807 14 16.5C14 15.1193 15.1193 14 16.5 14C17.8807 14 19 15.1193 19 16.5Z"/></svg>

<svg xmlns="http://www.w3.org/2000/svg" width="24" height="24" fill="none"><path stroke="#000" stroke-linejoin="round" stroke-width="2" d="M10 16h4M9 7v7m0-7H6.07a2 2 0 0 0-1.664.89l-1.07 1.606A2 2 0 0 0 3 10.606v3.68C3 15.233 3.768 16 4.714 16M9 7v2m0-2a2 2 0 0 1 2-2h8a2 2 0 0 1 2 2v7a2 2 0 0 1-2 2m-9 .5a2.5 2.5 0 1 1-5 0 2.5 2.5 0 0 1 5 0Zm9 0a2.5 2.5 0 1 1-5 0 2.5 2.5 0 0 1 5 0Z"/></svg>
